/* XPM */
static const char *neotpc_icon[] = {
/* columns rows colors chars-per-pixel */
"32 32 2 1 ",
"  c #FFE600",
". c None",
/* pixels */
"................................",
"................................",
"................................",
"................................",
"................................",
"................................",
"................................",
"................................",
"................................",
"................................",
"................................",
"................................",
"....       .      ....    ......",
"....       .       ..      .....",
"....... ....  ...  .  ....  ....",
"....... ....  ...  .  ..........",
"....... ....       .  ..........",
"....... ....      ..  ..........",
"....... ....  ......  ....  ....",
"....... ....  .......  ..  .....",
"....... ....  .......      .....",
"................................",
"................................",
"................................",
"................................",
"................................",
"................................",
"................................",
"................................",
"................................",
"................................",
"................................"
};
