/* XPM */
static const char *tpc_icon[] = {
/* columns rows colors chars-per-pixel */
"32 32 2 1 ",
"  c None",
". c #F2DA01",
/* pixels */
"                                ",
"                                ",
"                                ",
"                                ",
"                                ",
"                                ",
"                                ",
"                                ",
"                                ",
"                           .... ",
".....................    .......",
"......................  ........",
"...................... .........",
"   ....    ....    ........     ",
"   ....    ...............      ",
"   ....    ...............      ",
"   ....    .......... .....     ",
"   ....    .....       ..... ...",
"   ....    ....        .........",
"   ....    ....         ........",
"   ....    ....           ......",
"                                ",
"                                ",
"                                ",
"                                ",
"                                ",
"                                ",
"                                ",
"                                ",
"                                ",
"                                ",
"                                "
};
